icon-themes/sifr_svg/cmd/lc_dataproviderrefresh.svg

<svg viewBox="0 0 24 24" xmlns="http://www.w3.org/2000/svg"><path d="m3 1v11h2v-9h9v5h5v3h2v-4l-6-6zm16.5625 11-2.28125 2.28125c-.18821.18818-.28125.45346-.28125.71875v1h1c.335225 0 .543816 0 .71875-.28125l.28125-.28125v2.5625h2v-2.5625l.28125.28125c.18817.18815.45345.28125.71875.28125h1v-1c-.00003-.26531-.09311-.53058-.28125-.71875l-2.28125-2.28125zm-18.5625 1v9h12v-9zm2 2h2v2h-2zm3 0h2v2h-2zm3 0h2v2h-2zm7 2v2.5625l-.28125-.28125c-.18818-.18811-.45344-.28129-.71875-.28125h-1v1c0 .26529.09304.53057.28125.71875l2.28125 2.28125h.875l2.28125-2.28125c.18814-.18817.28122-.45344.28125-.71875v-1h-1c-.2653 0-.53058.0931-.71875.28125l-.28125.28125v-2.5625zm-13 1h2v2h-2zm3 0h2v2h-2zm3 0h2v2h-2z" fill="#555753"/></svg>

<svg xmlns="http://www.w3.org/2000/svg" viewBox="0 0 24 24">
  <path
     style="fill:#555753"
     d="M 3,1 V 12 H 5 V 3 h 9 v 5 h 5 v 3 h 2 V 7 L 15,1 Z m 16.5625,11 -2.28125,2.28125 C 17.09304,14.46943 17,14.73471 17,15 v 1 h 1 c 0.335225,0 0.543816,0 0.71875,-0.28125 L 19,15.4375 V 18 h 2 v -2.5625 l 0.28125,0.28125 C 21.46942,15.9069 21.7347,16 22,16 h 1 v -1 c -3e-5,-0.26531 -0.09311,-0.53058 -0.28125,-0.71875 L 20.4375,12 Z M 1,13 v 9 h 12 v -9 z m 2,2 h 2 v 2 H 3 Z m 3,0 h 2 v 2 H 6 Z m 3,0 h 2 v 2 H 9 Z m 7,2 v 2.5625 L 15.71875,19.28125 C 15.53057,19.09314 15.26531,18.99996 15,19 h -1 v 1 c 0,0.26529 0.09304,0.53057 0.28125,0.71875 L 16.5625,23 h 0.875 l 2.28125,-2.28125 C 19.90689,20.53058 19.99997,20.26531 20,20 v -1 h -1 c -0.2653,0 -0.53058,0.0931 -0.71875,0.28125 L 18,19.5625 V 17 Z M 3,18 h 2 v 2 H 3 Z m 3,0 h 2 v 2 H 6 Z m 3,0 h 2 v 2 H 9 Z"
     />
</svg>
